X:81
T:Morning Dew, The
T:Hare in the Heather, The
R:reel
D:Paddy Glackin: Ceol ar an bhFidil le Paddy Glackin.
D:Matt Molloy: Heathery Breeze.
Z:id:hn-reel-81
M:C|
K:Edor
|:~E3B BAFD|~E3A AGFD|~E3B BAFA|1BAdB ADFD:|2BAdB ADFA||
|:B2eB fBeB|~B2dB ADFA|1 B2eB fBeB|dcdB ADFA:|2 (3Bcd eg fdec|dcdB ADFA||
B2EB GBEB|~BAdB ADFA|1 B2EB GBEB|BcdB ADFA:|2 BAGF EFGA|BcdB ADFA||
